X:173
T:Something New. JJo.173
B:J.Johnson Choice Collection Vol 8 1758
Z:vmp.Simon Wilson 2013 www.village-music-project.org.uk
Z:Dance added by John Chambers 2017
M:9/8
L:1/8
%Q:3/8=130
K:Bb
|:\
B3 BFD F3 | B3 BFD EFG |\
B3 BFD E2E | DEF GAB ABc :|
|:\
B3 fdf F3 | B3 fdf gab |\
B3 fdf F3 | DEF GAB ABc :|
%%begintext align
%% Turn right hands and cast off one Cu .|
%% turn left hands and up again :| half
%% figure down on your own sides .| the
%% same up again ..| Lead down two Cu.
%% and cast up one .| Lead thro the Top
%% and cast off :| Hands across at Bottom
%% .| Right and Left at Top :|
%%endtext
